public/logo-guide.svg

<svg xmlns="http://www.w3.org/2000/svg" width="637" height="400" viewBox="0 0 637 400" xmlns:xlink="http://www.w3.org/1999/xlink">
  <defs>
    <rect id="a" width="554" height="327" x="41" y="35"/>
    <mask id="c" width="554" height="327" x="0" y="0" fill="white">
      <use xlink:href="#a"/>
    </mask>
    <rect id="b" width="336" height="110" x="150" y="144"/>
    <mask id="d" width="336" height="110" x="0" y="0" fill="white">
      <use xlink:href="#b"/>
    </mask>
    <path id="e" d="M216.443504,232.871775 C211.603852,227.09338 208.674424,219.646767 208.674424,211.517814 L208.688019,158.677906 C208.688019,154.368793 212.172938,150.864706 216.4571,150.864706 C220.740777,150.864706 224.22618,154.368793 224.22618,158.677906 L224.212584,211.517814 C224.212584,219.646767 221.283156,227.09338 216.443504,232.871775 L216.443504,232.871775 Z M274.711607,211.517814 C274.711607,229.82861 260.063492,244.724767 241.856652,244.724767 C234.523125,244.724767 227.681479,242.278407 222.195537,238.195113 C228.329711,231.014887 231.981665,221.704056 231.981665,211.517814 L231.995261,158.677906 C231.995261,150.061635 225.024453,143.051507 216.4571,143.051507 C207.889261,143.051507 200.918939,150.061635 200.918939,158.677906 L200.905343,211.517814 C200.905343,221.704056 204.802508,231.014887 210.936683,238.195113 C205.450741,242.278407 198.609094,244.724767 191.275568,244.724767 C173.068728,244.724767 158.175401,229.82861 158.175401,211.517814 L158.175401,147.058063 L150.406321,147.058063 L150.406321,211.517814 C150.406321,234.135768 168.866627,252.537967 191.357629,252.537967 C200.892718,252.537967 209.735874,249.205443 216.688716,243.670951 C223.641557,249.205443 232.280774,252.537967 241.815864,252.537967 C264.306381,252.537967 282.481173,234.135768 282.481173,211.517814 L282.481173,147.058063 L274.711607,147.058063 L274.711607,211.517814 Z M305.801088,250.468214 L313.570168,250.468214 L313.570168,146.846175 L305.801088,146.846175 L305.801088,250.468214 Z M381.587399,145.039486 C366.256575,145.039486 352.704871,152.840954 344.645907,164.702745 L344.645907,146.846517 L336.876827,146.846517 L336.876827,250.468557 L344.645907,250.468557 L344.645907,190.011451 L344.650277,190.011451 C344.650277,169.529968 361.220269,152.867837 381.587399,152.867837 L381.587399,145.039486 Z M396.148403,228.401657 C381.031715,210.368978 381.906222,183.291366 398.777266,166.308594 C415.64831,149.325821 442.547779,148.445523 460.461822,163.662321 L396.148403,228.401657 Z M471.466725,163.644725 C470.624751,162.665204 469.743931,161.708655 468.820382,160.7785 C447.994876,139.815078 414.109061,139.815078 393.283555,160.7785 C372.458049,181.741923 372.458049,215.852148 393.283555,236.815571 C414.106147,257.775572 447.984679,257.778505 468.811156,236.824369 L463.317445,231.294276 C446.445916,248.26825 419.552758,249.145616 401.642114,233.93175 L433.789598,201.57088 L471.466725,163.644725 Z M478.649725,147.736543 L481.367932,147.736543 L481.367932,154.782352 L482.195825,154.782352 L482.195825,147.736543 L484.925685,147.736543 L484.925685,146.961821 L478.649725,146.961821 L478.649725,147.736543 Z M493.091426,146.961626 L490.384872,153.748869 L487.690458,146.961626 L486.418757,146.961626 L486.418757,154.782157 L487.211689,154.782157 L487.211689,147.79549 L489.988164,154.782157 L490.746135,154.782157 L493.510956,147.818951 L493.510956,154.782157 L494.316027,154.782157 L494.316027,146.961626 L493.091426,146.961626 Z"/>
  </defs>
  <g fill="none" fill-rule="evenodd" transform="translate(1)">
    <ellipse cx="96" cy="199" stroke="#FB0807" stroke-opacity=".24" rx="54" ry="54"/>
    <circle cx="539.594" cy="199" r="54" stroke="#FB0807" stroke-opacity=".24"/>
    <ellipse cx="318" cy="90" stroke="#FB0807" stroke-opacity=".24" rx="54" ry="54"/>
    <circle cx="317.5" cy="307.5" r="53.5" stroke="#FB0807" stroke-opacity=".24"/>
    <path stroke="#E6EBEE" d="M150.5.5L150.5 399.5M41.5.5L41.5 399.5M485.5.5L485.5 399.5M594.5.5L594.5 399.5M0 144.5L635.052684 144.5M0 253.5L635.052684 253.5M0 35.5L635.052684 35.5M0 361.5L635.052684 361.5" stroke-linecap="square"/>
    <use fill="#FB0807" fill-opacity=".04" stroke="#BAC8D1" stroke-width="2" mask="url(#c)" xlink:href="#a"/>
    <use fill="#FFFFFF" stroke="#BAC8D1" stroke-width="2" mask="url(#d)" xlink:href="#b"/>
    <circle cx="430.75" cy="198.75" r="53.75" fill="#FB0807" fill-opacity=".32"/>
    <use fill="#8D989F" xlink:href="#e"/>
    <use fill="#000000" fill-opacity=".72" xlink:href="#e"/>
  </g>
</svg>

<svg xmlns="http://www.w3.org/2000/svg" width="640" height="400" viewBox="0 0 640 400" xmlns:xlink="http://www.w3.org/1999/xlink">
  <defs>
    <path id="a" d="M41 35h554v327H41z"/>
    <mask id="c" width="554" height="327" x="0" y="0" fill="#fff">
      <use xlink:href="#a"/>
    </mask>
    <path id="b" d="M148 144h339v110H148z"/>
    <mask id="d" width="339" height="110" x="0" y="0" fill="#fff">
      <use xlink:href="#b"/>
    </mask>
    <path id="e" d="M216.444 232.872c-4.84-5.78-7.77-13.225-7.77-21.354l.014-52.84c0-4.31 3.485-7.813 7.77-7.813 4.283 0 7.768 3.504 7.768 7.813l-.013 52.84c0 8.13-2.93 15.575-7.77 21.354zm58.268-21.354c0 18.31-14.65 33.207-32.855 33.207a32.916 32.916 0 0 1-19.66-6.53c6.133-7.18 9.785-16.49 9.785-26.677l.013-52.84c0-8.616-6.97-15.626-15.538-15.626-8.568 0-15.538 7.01-15.538 15.626l-.02 52.84c0 10.186 3.9 19.497 10.03 26.677-5.49 4.083-12.33 6.53-19.66 6.53-18.21 0-33.1-14.896-33.1-33.207v-64.46h-7.77v64.46c0 22.618 18.46 41.02 40.95 41.02 9.53 0 18.38-3.333 25.33-8.867 6.95 5.54 15.59 8.87 25.13 8.87 22.49 0 40.66-18.4 40.66-41.02v-64.46h-7.77v64.46zm31.09 38.95h7.768V146.846h-7.77v103.622zm75.785-105.43c-15.33 0-28.882 7.803-36.94 19.665v-17.856h-7.77V250.47h7.77v-60.46h.003c0-20.48 16.57-37.142 36.937-37.142v-7.83zm14.56 83.364c-15.115-18.033-14.24-45.11 2.63-62.093 16.87-16.99 43.77-17.87 61.685-2.65l-64.314 64.74zm75.32-64.757a54.307 54.307 0 0 0-2.647-2.867c-20.825-20.963-54.71-20.963-75.536 0-20.826 20.964-20.826 55.074 0 76.038 20.822 20.96 54.7 20.963 75.527.008l-5.49-5.53c-16.87 16.974-43.76 17.852-61.67 2.638l32.15-32.36 37.68-37.927zm7.183-15.908h2.718v7.045h.828v-7.045h2.73v-.775h-6.276v.775zm14.44-.775l-2.705 6.787-2.695-6.79h-1.27v7.82h.792v-6.99l2.776 6.98h.758l2.765-6.965v6.962h.81v-7.82h-1.22z"/>
  </defs>
  <g fill="none" fill-rule="evenodd" transform="translate(2)">
    <ellipse cx="95" cy="199" stroke="#FB0807" stroke-opacity=".24" rx="54" ry="54"/>
    <circle cx="539.594" cy="199" r="54" stroke="#FB0807" stroke-opacity=".24"/>
    <ellipse cx="318" cy="90" stroke="#FB0807" stroke-opacity=".24" rx="54" ry="54"/>
    <circle cx="318" cy="307" r="54" stroke="#FB0807" stroke-opacity=".24"/>
    <path stroke="#E6EBEE" d="M148.5.5v399M41.5.5v399m445-399v399m108-399v399M0 144.5h635.053M0 253.5h635.053M0 35.5h635.053M0 361.5h635.053" stroke-linecap="square"/>
    <use fill="#FB0807" fill-opacity=".04" stroke="#BAC8D1" stroke-width="2" mask="url(#c)" xlink:href="#a"/>
    <use fill="#FFF" stroke="#BAC8D1" stroke-width="2" mask="url(#d)" xlink:href="#b"/>
    <circle cx="431" cy="199" r="54" fill="#FB0807" fill-opacity=".32"/>
    <use fill="#8D989F" xlink:href="#e"/>
    <use fill="#000" fill-opacity=".72" xlink:href="#e"/>
  </g>
</svg>
